X: 1
T: Giu\vsevska R\ua\vcenica
%T: Giushevska Rachenitsa
O: Bulgaria
C: Boris Karlov
Z: 2003 John Chambers <jc@trillian.mit.edu>
R: rachenica
M: 7/16
L: 1/16
K: A_B_e^c
"A"\
|: "A"d2e2 e3 | e2ed dcd | e2ed dcB | c2cB BAG \
| "Gm"{A}B2BG cde | c2cB BAG | "A"GAA2 AGA | A2A2 A3 :|
"B"\
[|"Gm"{G}B2z2 cd2 | c2Bc BAG |    B2z2 cde | c2Bc BAG \
|        B2z2 cd2 | c2Bc BAG | "A"GAA2 AGA | A2A2 A2G |
| "Gm"{A}B2BG cde | c2Bc BAG |    B2BG cde | c2Bc BAG \
|        B2BG cde | c2Bc BAG | "A"GAA2 AGA | A2A2 A2G |]
"C"\
|::: "A"e2eg fed | c2ce dcB | "Gm"ABc2 BAG |1,3 "A"ABcd e2A :|2,4 "A"GAAE "^fine"A3 :|
"D"\
|: "Gm"e2d2 cd2 | c2B2 B2B | e2d2 cd2 |    c2B2- B3 \
|      e2d2 cd2 | c2cB cde | c2Bc BAG | "A"A2AE  A3 :|
"E"\
|: "Gm"G2G2 cd2 | c2B2 B2B | G2G2 fed |    c2B2- B3 \
|      G2G2 cd2 | c2B2 cde | c2Bc BAG | "A"A2AE  A3 :|
"F"\
|: "A"ABc2 ced | cBAB c2[BE] | ABc2     ced |    cBAB c2E \
|     ABc2 ced | cBAB c2[BE] | c2Bc "Gm"BAG | "A"A2AE A3:|
"C"\
|::: "A"e2eg fed | c2ce dcB | ABc2 "Gm"BAG |1,3 "A"ABcd e2A :|2,4 "A"GAAE A3 :|
K: A_B_e^c
"G"\
|: "G"cdef ga{a}g | gG~f2 def | ~g2ff dfe | dcBc dGG :|
"H"\
|: "G"~g2fe dfe | dcBc def | f[gG]fg gfe | eGfG dGG :|
K: Gmix
"I"\
|::: "G"dc{c}BA Bcd | "(D7)"~B2AG "G"GDD | "D7"AD~c2 AcD | ~B2AG "G"{A}GDD :::|
K: Amix
"J"\
|::: "A"cdeA egA | ~f2fA egA | ~f2fA egA | ~f2fA ~e3 :::|
